assets/Man genie/Flat/man_genie_flat.svg

<svg width="32" height="32" viewBox="0 0 32 32" fill="none" xmlns="http://www.w3.org/2000/svg">
<path d="M16 17C14 17 11.9152 17.7552 11.9152 17.7552C11.3833 17.9449 10.8719 19.1706 10.3849 19.4289C9.94991 19.6596 9.53435 18.9163 9.14085 19.1966C6.61627 20.9949 5 23.7653 5 26.8759V30H9.1L11.025 29L12.9 30H19.1L21 29L22.9 30H27V26.8759C27 23.7391 25.3476 20.9434 22.7781 19.1452C22.3429 18.8406 21.8814 19.5646 21.3971 19.3204C20.9866 19.1135 20.5598 17.9294 20.1188 17.7701C20.1188 17.7701 18 17 16 17Z" fill="#46A4FB"/>
<path d="M11.9152 17.7552C11.9152 17.7552 12.3443 17.5998 13 17.4299V30H9V19.2987C9.86944 18.6582 10.8512 18.1347 11.9152 17.7552Z" fill="#F92F60"/>
<path d="M23 30H19V17.4333C19.6741 17.6085 20.1188 17.7701 20.1188 17.7701C21.1693 18.1496 22.1396 18.6699 23 19.3046V30Z" fill="#F92F60"/>
<path d="M12.75 12.125C12.75 13.0225 12.0225 13.75 11.125 13.75C10.2275 13.75 9.5 13.0225 9.5 12.125C9.5 11.2275 10.2275 10.5 11.125 10.5C12.0225 10.5 12.75 11.2275 12.75 12.125Z" fill="#26C9FC"/>
<path d="M22.5 12.125C22.5 13.0225 21.7725 13.75 20.875 13.75C19.9775 13.75 19.25 13.0225 19.25 12.125C19.25 11.2275 19.9775 10.5 20.875 10.5C21.7725 10.5 22.5 11.2275 22.5 12.125Z" fill="#26C9FC"/>
<path d="M13 30V16.2558C13.4909 16.1476 13.9955 16.0689 14.5 16V30H13Z" fill="#FCD53F"/>
<path d="M19 30V16.26C18.5091 16.15 18.0045 16.07 17.5 16V30H19Z" fill="#FCD53F"/>
<path d="M15.5571 5C12.7675 5 10.5684 7.05304 10.7619 9.78709L11.1589 15.5456C11.332 17.2682 12.7064 18.5 14.3863 18.5H17.6137C19.2936 18.5 20.6782 17.2682 20.8411 15.5456L21.2381 9.78709C21.4316 7.05304 19.2325 5 16.4429 5H15.5571V5Z" fill="#26C9FC"/>
<path d="M12.2569 11.9601C12.4169 11.3501 12.9669 10.9001 13.6169 10.9001C14.2969 10.9001 14.8669 11.3901 14.9969 12.0301C15.0269 12.1701 14.9069 12.3001 14.7669 12.3001H12.5369C12.3569 12.3001 12.2169 12.1301 12.2569 11.9601Z" fill="white"/>
<path d="M19.7669 11.9601C19.6069 11.3501 19.0569 10.9001 18.4069 10.9001C17.7269 10.9001 17.1669 11.3901 17.0369 12.0301C17.0069 12.1701 17.1269 12.3001 17.2669 12.3001H19.4969C19.6769 12.3001 19.8069 12.1301 19.7669 11.9601Z" fill="white"/>
<path d="M12.9368 12.0599C12.9368 11.5699 13.3368 11.1699 13.8268 11.1699C14.3168 11.1699 14.7268 11.5699 14.7168 12.0599C14.7168 12.1499 14.7068 12.2199 14.6868 12.2999H12.9668C12.9468 12.2199 12.9368 12.1399 12.9368 12.0599Z" fill="#7D4533"/>
<path d="M19.0968 12.0599C19.0968 11.5699 18.6968 11.1699 18.2068 11.1699C17.7068 11.1699 17.3068 11.5699 17.3168 12.0599C17.3168 12.1499 17.3268 12.2199 17.3468 12.2999H19.0668C19.0868 12.2199 19.0968 12.1399 19.0968 12.0599Z" fill="#7D4533"/>
<path d="M13.8267 11.55C14.1067 11.55 14.3367 11.78 14.3367 12.06C14.3367 12.15 14.3167 12.23 14.2767 12.3H13.3767C13.3367 12.23 13.3167 12.15 13.3167 12.06C13.3167 11.78 13.5467 11.55 13.8267 11.55Z" fill="black"/>
<path d="M18.2068 11.55C17.9268 11.55 17.6968 11.78 17.6968 12.06C17.6968 12.15 17.7168 12.23 17.7568 12.3H18.6568C18.6968 12.23 18.7168 12.15 18.7168 12.06C18.7168 11.78 18.4868 11.55 18.2068 11.55Z" fill="black"/>
<path d="M13.6767 11.71C13.6767 11.7984 13.6051 11.87 13.5167 11.87C13.4283 11.87 13.3567 11.7984 13.3567 11.71C13.3567 11.6217 13.4283 11.55 13.5167 11.55C13.6051 11.55 13.6767 11.6217 13.6767 11.71Z" fill="white"/>
<path d="M18.0868 11.71C18.0868 11.7984 18.0152 11.87 17.9268 11.87C17.8385 11.87 17.7668 11.7984 17.7668 11.71C17.7668 11.6217 17.8385 11.55 17.9268 11.55C18.0152 11.55 18.0868 11.6217 18.0868 11.71Z" fill="white"/>
<path d="M14.495 15.0214C14.3498 14.9414 14.1838 15.1114 14.2771 15.2414C14.6403 15.7814 15.2732 16.1414 15.9995 16.1414C16.7258 16.1414 17.3587 15.7814 17.7218 15.2414C17.8152 15.1014 17.6596 14.9414 17.5039 15.0214C17.0682 15.2414 14.9308 15.2414 14.495 15.0214Z" fill="#990839"/>
<path d="M16.4646 5.88C17.094 5.88 17.6807 5.99 18.2247 6.21C18.7474 6.42 19.2061 6.71 19.5794 7.09C19.9208 7.43 20.1768 7.83 20.3368 8.26C20.5074 8.72 20.5821 9.21 20.5394 9.72L20.1341 15.46C20.0701 16.07 19.7821 16.62 19.3341 17.01C18.8861 17.39 18.2994 17.61 17.6807 17.61H14.3099C13.6912 17.61 13.1045 17.4 12.6565 17.01C12.2085 16.62 11.9205 16.07 11.8565 15.46L11.4405 9.72C11.3978 9.21 11.4725 8.72 11.6431 8.26C11.8138 7.82 12.0698 7.43 12.4005 7.09C12.7738 6.71 13.2325 6.42 13.7552 6.21C14.2992 5.99 14.8966 5.88 15.5153 5.88H16.4646V5.88ZM16.4646 5H15.5366C12.6138 5 10.3097 7.05 10.5124 9.78L10.9284 15.53C11.1098 17.25 12.5498 18.48 14.3099 18.48H17.6913C19.4514 18.48 20.9021 17.25 21.0728 15.53L21.4888 9.78C21.6808 7.05 19.3767 5 16.4646 5Z" fill="#321B41"/>
<path d="M19.706 10.2772C19.8881 10.0416 19.8443 9.70265 19.6087 9.52057L19.6075 9.51967L19.6058 9.51832L19.6014 9.51505L19.5898 9.5064C19.5806 9.49973 19.5688 9.49129 19.5544 9.48137C19.5255 9.46155 19.4861 9.43573 19.4367 9.40634C19.3382 9.34771 19.1985 9.27393 19.0233 9.20537C18.6731 9.06832 18.1721 8.94904 17.5738 9.0223C17.2782 9.05849 17.068 9.32745 17.1042 9.62304C17.1403 9.91862 17.4093 10.1289 17.7049 10.0927C18.0866 10.046 18.4056 10.1217 18.6304 10.2096C18.7427 10.2536 18.8293 10.2998 18.8852 10.333C18.913 10.3496 18.9327 10.3627 18.9438 10.3703L18.9535 10.3771C19.189 10.5558 19.5249 10.5115 19.706 10.2772Z" fill="#321B41"/>
<path d="M12.2095 9.52084C11.9739 9.70292 11.9305 10.0416 12.1126 10.2772C12.2937 10.5115 12.6296 10.5558 12.865 10.3771L12.8748 10.3703C12.8859 10.3627 12.9056 10.3496 12.9334 10.333C12.9893 10.2998 13.0759 10.2536 13.1882 10.2096C13.413 10.1217 13.732 10.046 14.1137 10.0927C14.4093 10.1289 14.6782 9.91862 14.7144 9.62304C14.7506 9.32745 14.5403 9.05849 14.2448 9.0223C13.6465 8.94904 13.1455 9.06832 12.7952 9.20537C12.62 9.27393 12.4804 9.34771 12.3819 9.40634C12.3325 9.43573 12.2931 9.46155 12.2642 9.48137C12.2498 9.49129 12.2379 9.49973 12.2288 9.5064L12.2171 9.51505L12.2128 9.51832L12.211 9.51967L12.2095 9.52084Z" fill="#321B41"/>
<path d="M9.78429 6.79933C9.51742 5.0639 10.8419 3.5 12.5815 3.5H19.4114C21.151 3.5 22.4755 5.0639 22.2086 6.79933L21.8034 9.42265C21.7441 9.84641 21.4278 10.1693 21.0226 10.25L21.0324 10.0785V9.77578C21.0226 9.61435 21.0127 9.463 20.983 9.31166C20.8249 8.67601 20.2516 8.21188 19.5696 8.21188H12.4135C11.7414 8.21188 11.1681 8.67601 11 9.31166C10.9803 9.463 10.9605 9.61435 10.9605 9.77578V10.0785L10.9704 10.25C10.921 10.2399 10.8728 10.226 10.8262 10.2087C10.4998 10.087 10.2501 9.79344 10.1895 9.42265L9.78429 6.79933Z" fill="#F92F60"/>
<path d="M17.5435 3.94386C17.4249 3.89341 17.2964 3.94386 17.2272 4.04476L17.224 4.04925C17.1707 4.12497 16.4747 5.11422 14.4399 4.82167C14.1731 4.78131 13.9061 4.74094 13.6492 4.70059L13.6115 4.69428C12.4769 4.50452 11.3156 4.3103 10.338 4.59969C10.1601 4.83176 10.0217 5.09409 9.92285 5.3766C10.8473 4.77425 12.124 4.981 13.5485 5.21167L13.5701 5.21516C13.6845 5.23313 13.8028 5.25308 13.9223 5.27326C14.0715 5.29843 14.2226 5.32393 14.3707 5.34633C15.5963 5.52794 16.4068 5.28579 16.9307 4.99319C16.4563 6.04252 15.4975 6.62772 13.1648 6.62772C12.2654 6.62772 11.0101 6.79924 10.1403 7.6266L9.94262 7.82839L10.0612 8.57503C10.2886 8.12099 11.0299 7.15238 13.1648 7.15238C14.6771 7.15238 15.715 6.92032 16.4365 6.40575C17.0888 5.95171 17.4842 5.28579 17.7115 4.25664C17.7214 4.11539 17.6621 3.99431 17.5435 3.94386Z" fill="#CA0B4A"/>
<path d="M22.0109 8.13112C21.2103 7.16251 20.0143 6.5874 18.7294 6.5874C18.591 6.5874 18.4724 6.70848 18.4724 6.84973C18.4724 6.99099 18.591 7.11207 18.7294 7.11207C20.0242 7.11207 21.2103 7.78808 21.9022 8.86767L22.0109 8.13112Z" fill="#CA0B4A"/>
<path d="M19.1347 5.1648C18.9963 5.1648 18.8777 5.04372 18.8777 4.90247C18.8777 4.75112 18.9864 4.64014 19.1446 4.64014C20.2417 4.64014 21.3191 5.02354 22.179 5.70964C22.2284 5.96189 22.2581 6.21413 22.2482 6.47646C21.4278 5.63902 20.301 5.1648 19.1347 5.1648Z" fill="#CA0B4A"/>
<path d="M16 7.5C16.8284 7.5 17.5 6.82843 17.5 6C17.5 5.17157 16.8284 4.5 16 4.5C15.1716 4.5 14.5 5.17157 14.5 6C14.5 6.82843 15.1716 7.5 16 7.5Z" fill="#FCD53F"/>
<path d="M16 6.75C16.4142 6.75 16.75 6.41421 16.75 6C16.75 5.58579 16.4142 5.25 16 5.25C15.5858 5.25 15.25 5.58579 15.25 6C15.25 6.41421 15.5858 6.75 16 6.75Z" fill="#F8312F"/>
<path d="M15.5817 12.002L15.0277 13.7432C14.9082 14.0977 15.1907 14.4626 15.5817 14.4626H16.4183C16.8093 14.4626 17.0918 14.0977 16.9723 13.7432L16.4074 12.002C16.277 11.6162 15.7121 11.6162 15.5817 12.002Z" fill="#00A6ED"/>
<path fill-rule="evenodd" clip-rule="evenodd" d="M16.9132 14C16.8717 14.24 16.6642 14.44 16.384 14.44H15.616C15.3358 14.44 15.1283 14.24 15.0868 14H14.1113C13.634 14 13.25 14.37 13.25 14.83V18.16H14.2877V18H15.5V18.05H16.5V18H17.7123V18.16H18.75V14.83C18.75 14.37 18.366 14 17.8887 14H16.9132ZM17.2123 17.5C17.4884 17.5 17.7123 17.2761 17.7123 17V15.66C17.7123 15.5219 17.6003 15.41 17.4623 15.41H14.5377C14.3997 15.41 14.2877 15.5219 14.2877 15.66V17C14.2877 17.2761 14.5116 17.5 14.7877 17.5H15C15.2761 17.5 15.5 17.2761 15.5 17V17C15.5 16.72 15.72 16.5 16 16.5C16.28 16.5 16.5 16.72 16.5 17V17C16.5 17.2761 16.7239 17.5 17 17.5H17.2123Z" fill="#321B41"/>
</svg>

<svg xmlns="http://www.w3.org/2000/svg" width="32" height="32" fill="none"><path fill="#46A4FB" d="M16 17c-2 0-4.085.755-4.085.755-.532.19-1.043 1.416-1.53 1.674-.435.23-.85-.513-1.244-.232C6.616 20.995 5 23.765 5 26.876V30h4.1l1.925-1 1.875 1h6.2l1.9-1 1.9 1H27v-3.124c0-3.137-1.652-5.933-4.222-7.73-.435-.305-.897.419-1.38.174-.411-.207-.838-1.39-1.28-1.55 0 0-2.118-.77-4.118-.77Z"/><path fill="#F92F60" d="M11.915 17.755s.43-.155 1.085-.325V30H9V19.299c.87-.64 1.851-1.164 2.915-1.544ZM23 30h-4V17.433c.674.175 1.119.337 1.119.337 1.05.38 2.02.9 2.881 1.535V30Z"/><path fill="#26C9FC" d="M12.75 12.125a1.625 1.625 0 1 1-3.25 0 1.625 1.625 0 0 1 3.25 0ZM22.5 12.125a1.625 1.625 0 1 1-3.25 0 1.625 1.625 0 0 1 3.25 0Z"/><path fill="#FCD53F" d="M13 30V16.256c.49-.108.995-.187 1.5-.256v14H13ZM19 30V16.26c-.49-.11-.995-.19-1.5-.26v14H19Z"/><path fill="#26C9FC" d="M15.557 5c-2.79 0-4.989 2.053-4.795 4.787l.397 5.759c.173 1.722 1.547 2.954 3.227 2.954h3.228c1.68 0 3.064-1.232 3.227-2.954l.397-5.759C21.432 7.053 19.233 5 16.443 5h-.886Z"/><path fill="#fff" d="M12.257 11.96c.16-.61.71-1.06 1.36-1.06.68 0 1.25.49 1.38 1.13.03.14-.09.27-.23.27h-2.23c-.18 0-.32-.17-.28-.34ZM19.767 11.96c-.16-.61-.71-1.06-1.36-1.06-.68 0-1.24.49-1.37 1.13-.03.14.09.27.23.27h2.23c.18 0 .31-.17.27-.34Z"/><path fill="#7D4533" d="M12.937 12.06c0-.49.4-.89.89-.89s.9.4.89.89c0 .09-.01.16-.03.24h-1.72a.986.986 0 0 1-.03-.24ZM19.097 12.06c0-.49-.4-.89-.89-.89-.5 0-.9.4-.89.89 0 .09.01.16.03.24h1.72c.02-.08.03-.16.03-.24Z"/><path fill="#000" d="M13.827 11.55a.512.512 0 0 1 .45.75h-.9a.512.512 0 0 1 .45-.75ZM18.207 11.55a.512.512 0 0 0-.45.75h.9a.512.512 0 0 0-.45-.75Z"/><path fill="#fff" d="M13.677 11.71a.16.16 0 1 1-.32 0 .16.16 0 0 1 .32 0ZM18.087 11.71a.16.16 0 1 1-.32 0 .16.16 0 0 1 .32 0Z"/><path fill="#990839" d="M14.495 15.021c-.145-.08-.311.09-.218.22.363.54.996.9 1.723.9.726 0 1.359-.36 1.722-.9.093-.14-.062-.3-.218-.22-.436.22-2.573.22-3.009 0Z"/><path fill="#321B41" d="M16.465 5.88c.629 0 1.216.11 1.76.33.522.21.981.5 1.354.88.342.34.598.74.758 1.17.17.46.245.95.202 1.46l-.405 5.74a2.377 2.377 0 0 1-.8 1.55 2.56 2.56 0 0 1-1.653.6H14.31c-.619 0-1.206-.21-1.654-.6a2.377 2.377 0 0 1-.8-1.55l-.415-5.74c-.043-.51.031-1 .202-1.46.17-.44.427-.83.757-1.17.374-.38.832-.67 1.355-.88a4.69 4.69 0 0 1 1.76-.33h.95Zm0-.88h-.928c-2.923 0-5.227 2.05-5.025 4.78l.416 5.75c.182 1.72 1.622 2.95 3.382 2.95h3.381c1.76 0 3.211-1.23 3.382-2.95l.416-5.75C21.68 7.05 19.377 5 16.465 5Z"/><path fill="#321B41" d="M19.706 10.277a.54.54 0 0 0-.097-.756l-.002-.001-.001-.002-.005-.003-.011-.009a1.778 1.778 0 0 0-.153-.1 2.976 2.976 0 0 0-1.863-.384.54.54 0 1 0 .13 1.07 1.9 1.9 0 0 1 1.181.241l.059.037.01.007a.54.54 0 0 0 .752-.1ZM12.21 9.52a.54.54 0 0 0 .655.857l.01-.007.058-.037a1.9 1.9 0 0 1 1.18-.24.54.54 0 0 0 .132-1.07 2.977 2.977 0 0 0-1.863.383 2.17 2.17 0 0 0-.153.1l-.012.01-.004.002-.002.002h-.002Z"/><path fill="#F92F60" d="M9.784 6.8c-.267-1.736 1.058-3.3 2.797-3.3h6.83c1.74 0 3.064 1.564 2.798 3.3l-.406 2.623a.977.977 0 0 1-.78.827l.01-.171v-.303a3.485 3.485 0 0 0-.05-.464 1.453 1.453 0 0 0-1.413-1.1h-7.156A1.47 1.47 0 0 0 11 9.312c-.02.151-.04.302-.04.464v.303l.01.171a1.007 1.007 0 0 1-.78-.827l-.406-2.624Z"/><path fill="#CA0B4A" d="M17.544 3.944a.26.26 0 0 0-.317.1l-.003.005c-.053.076-.75 1.065-2.784.773l-.79-.121-.039-.007c-1.134-.19-2.295-.384-3.273-.094a2.784 2.784 0 0 0-.415.777c.924-.603 2.201-.396 3.626-.165l.021.003.352.058c.15.025.3.05.449.073 1.225.182 2.036-.06 2.56-.353-.475 1.05-1.434 1.635-3.766 1.635-.9 0-2.155.171-3.025.999l-.197.201.118.747c.228-.454.969-1.423 3.104-1.423 1.512 0 2.55-.232 3.271-.746.653-.454 1.048-1.12 1.276-2.15.01-.14-.05-.262-.168-.312ZM22.01 8.131a4.252 4.252 0 0 0-3.28-1.544.264.264 0 0 0-.258.263c0 .141.119.262.257.262 1.295 0 2.481.676 3.173 1.756l.109-.737ZM19.135 5.165a.264.264 0 0 1-.257-.263c0-.15.108-.262.267-.262a4.89 4.89 0 0 1 3.034 1.07c.05.252.08.504.07.766a4.37 4.37 0 0 0-3.114-1.311Z"/><path fill="#FCD53F" d="M16 7.5a1.5 1.5 0 1 0 0-3 1.5 1.5 0 0 0 0 3Z"/><path fill="#F8312F" d="M16 6.75a.75.75 0 1 0 0-1.5.75.75 0 0 0 0 1.5Z"/><path fill="#00A6ED" d="m15.582 12.002-.554 1.741c-.12.355.163.72.554.72h.836c.391 0 .674-.365.554-.72l-.565-1.741c-.13-.386-.695-.386-.825 0Z"/><path fill="#321B41" fill-rule="evenodd" d="M16.913 14a.531.531 0 0 1-.529.44h-.768c-.28 0-.488-.2-.53-.44h-.975c-.477 0-.861.37-.861.83v3.33h1.038V18H15.5v.05h1V18h1.212v.16h1.038v-3.33c0-.46-.384-.83-.861-.83h-.976Zm.3 3.5a.5.5 0 0 0 .5-.5v-1.34a.25.25 0 0 0-.25-.25h-2.925a.25.25 0 0 0-.25.25V17a.5.5 0 0 0 .5.5H15a.5.5 0 0 0 .5-.5c0-.28.22-.5.5-.5s.5.22.5.5a.5.5 0 0 0 .5.5h.212Z" clip-rule="evenodd"/></svg>
